Newaita-dark/actions/22/format-text-larger.svg

<?xml version="1.0" encoding="UTF-8"?>
<svg xmlns="http://www.w3.org/2000/svg" xmlns:xlink="http://www.w3.org/1999/xlink" width="22pt" height="22pt" viewBox="0 0 22 22" version="1.1">
<g id="surface1">
<path style=" stroke:none;fill-rule:nonzero;fill:rgb(47.058824%,56.470591%,61.176473%);fill-opacity:1;" d="M 10.914062 3.808594 C 8.886719 3.808594 7.125 4.632812 6.183594 5.855469 L 7.695312 6.800781 C 8.269531 6.101562 9.375 5.628906 10.652344 5.628906 L 11.179688 5.628906 C 13.046875 5.628906 14.554688 6.644531 14.554688 7.902344 L 14.554688 10.632812 C 13.589844 9.988281 12.316406 9.59375 10.914062 9.59375 C 7.890625 9.59375 5.457031 11.421875 5.457031 13.6875 L 5.457031 14.144531 L 5.492188 14.144531 C 5.789062 16.195312 8.097656 17.78125 10.914062 17.78125 C 12.316406 17.78125 13.589844 17.390625 14.554688 16.742188 L 14.554688 17.679688 L 16.371094 17.679688 L 16.371094 7.902344 C 16.371094 5.636719 13.9375 3.808594 10.914062 3.808594 Z M 10.652344 11.414062 L 11.179688 11.414062 C 13.046875 11.414062 14.554688 12.429688 14.554688 13.6875 C 14.554688 14.949219 13.046875 15.960938 11.179688 15.960938 L 10.652344 15.960938 C 8.78125 15.960938 7.277344 14.949219 7.277344 13.6875 C 7.277344 12.429688 8.78125 11.414062 10.652344 11.414062 Z M 10.652344 11.414062 "/>
</g>
</svg>

<svg xmlns="http://www.w3.org/2000/svg" width="22pt" height="22pt" viewBox="0 0 22 22"><path d="M10.914 3.809c-2.027 0-3.789.824-4.73 2.046l1.511.946c.575-.7 1.68-1.172 2.957-1.172h.528c1.867 0 3.375 1.016 3.375 2.273v2.73c-.965-.644-2.239-1.038-3.64-1.038-3.024 0-5.458 1.828-5.458 4.094v.457h.035c.297 2.05 2.606 3.636 5.422 3.636 1.402 0 2.676-.39 3.64-1.039v.938h1.817V7.902c0-2.265-2.433-4.093-5.457-4.093zm-.262 7.605h.528c1.867 0 3.375 1.016 3.375 2.274 0 1.261-1.508 2.273-3.375 2.273h-.528c-1.87 0-3.375-1.012-3.375-2.274 0-1.257 1.504-2.273 3.375-2.273zm0 0" fill="#78909c"/></svg>
